X:163
T: Die Mordeltern
N: Q0085E
O: Mitteleuropa, Deutschland (DDR) , Brandenburg, Mark
R: Ballade, Habgier, Mord, Reue, Selbstmord
M: 3/4
L: 1/16
K: G
G4 | GGB2d4B4 | c2B2A6
B2 | c2A2F2G2A2F2 | G2E2D6
D2 | G2F2G4B4 | A4G4z2
D2 | G2F2G4B4 | A4G4

@@@ Tune index: 1218
